X: 3148
T: SANDY IS MY DARLING
Q: "Reel."
R: Reel.
%R: reel
B: James Kerr "Merry Melodies" v.3 p.18 #148
Z: 2016 John Chambers <jc:trillian.mit.edu>
M: C
L: 1/8
K: Am
uc |\
A2a2 gede | cGGA GAcG |\
A2a2 gede | cAB^G A3 :|\
c |\
ABcd egde | cGGA GAcG |
ABcd egde | cAB^G A2(AB) |\
ABcd egde | cGGA Gceg |\
aegd edca | gedB A3 |]

%%sep 1 1 500
%%sep 1 1 500

